exported-svg/trending-up.svg

<svg height="24" viewBox="0 0 24 24" width="24" xmlns="http://www.w3.org/2000/svg"><path d="m21.7928932 7h-4.7928932c-.2761424 0-.5-.22385763-.5-.5s.2238576-.5.5-.5h6c.2761424 0 .5.22385763.5.5v6c0 .2761424-.2238576.5-.5.5s-.5-.2238576-.5-.5v-4.79289322l-8.6464466 8.64644662c-.1952622.1952621-.5118446.1952621-.7071068 0l-4.6464466-4.6464466-7.14644661 7.1464466c-.19526215.1952621-.51184463.1952621-.70710678 0-.19526215-.1952622-.19526215-.5118446 0-.7071068l7.5-7.5c.19526215-.1952621.51184463-.1952621.70710678 0l4.64644661 4.6464466z"/></svg>

<?xml version="1.0" encoding="UTF-8"?>
<svg width="24px" height="24px" viewBox="0 0 24 24" version="1.1" xmlns="http://www.w3.org/2000/svg" xmlns:xlink="http://www.w3.org/1999/xlink">
    <!-- Generator: Sketch 55.2 (78181) - https://sketchapp.com -->
    <title>trending-up</title>
    <desc>Created with Sketch.</desc>
    <g id="trending-up" stroke="none" stroke-width="1" fill="none" fill-rule="evenodd">
        <path d="M21.7928932,7 L17,7 C16.7238576,7 16.5,6.77614237 16.5,6.5 C16.5,6.22385763 16.7238576,6 17,6 L23,6 C23.2761424,6 23.5,6.22385763 23.5,6.5 L23.5,12.5 C23.5,12.7761424 23.2761424,13 23,13 C22.7238576,13 22.5,12.7761424 22.5,12.5 L22.5,7.70710678 L13.8535534,16.3535534 C13.6582912,16.5488155 13.3417088,16.5488155 13.1464466,16.3535534 L8.5,11.7071068 L1.35355339,18.8535534 C1.15829124,19.0488155 0.841708755,19.0488155 0.646446609,18.8535534 C0.451184464,18.6582912 0.451184464,18.3417088 0.646446609,18.1464466 L8.14644661,10.6464466 C8.34170876,10.4511845 8.65829124,10.4511845 8.85355339,10.6464466 L13.5,15.2928932 L21.7928932,7 Z" id="Combined-Shape" fill="#000000" fill-rule="nonzero"></path>
    </g>
</svg>
